X:1
T:There’s Power in Jesus’ Blood
T:There’s Power in Jesus’ Blood
T:William James Kirkpatrick
T:Frances Jane (Fanny) Crosby, 1896
T:Public Domain Courtesy of the Cyber Hymnal™
C:William James Kirkpatrick
Z:Public Domain
Z:Courtesy of the Cyber Hymnal™
%%score 1 ( 2 3 )
L:1/8
Q:1/4=95
M:2/4
K:G
V:1 treble 
V:2 bass 
V:3 bass 
V:1
 [B,D] | [B,D][B,D] [DG][DA] | [DB] [DB]2 [DA] | [DG][DG] [GB][GB] | [FA]3 [CD] | %5
w: 1.~My|hap- py soul re-|joic- es, The|sky is bright a-|bove; I’ll|
w: 2.~I|heard the bless- èd|sto- ry Of|Him who died to|save; The|
w: 3.~His|gra- cious words of|par- don Were|mu- sic to my|heart; He|
w: 4.~I|plunge be- neath this|fount- ain, That|cleans- eth white as|snow; It|
w: 5.~Oh,|crown Him King for-|ev- er! My|Sav- ior and my|friend; By|
 [B,D][B,D] [DG][DA] | [DB] [DB]2 [Gd] | [Gd]>[GB] [FA][FB] | [DG]2 ||"^Refrain" [DB][DB] | %10
w: join the heav’n- ly|voic- es, And|sing re- deem- ing|love.||
w: love of Christ swept|o’er me, My|all to Him I|gave.||
w: took a- way my|bur- den, And|bade my fears de-|part.|For there’s|
w: pours from Cal- vary’s|mount- ain, With|bless- ing in its|flow.||
w: Zi- on’s crys- tal|riv- er His|praise shall nev- er|end.||
 [B,D]3 [B,D] | [CE][EG] [DG]2 [FA]3 [FA] | [GB][Gd] [Gd][Gd] | [Gd]3 [GB] | [Gd][Gd] [GB][CG] | %15
w: |||||
w: |||||
w: power in|Je- sus’ blood, Power in|Je- sus’ blood; There’s|power in|Je- sus’ blood To|
w: |||||
w: |||||
 [DB]>[DG] [DA][DA] | [DG]3 |] %17
w: ||
w: ||
w: wash me white as|snow.|
w: ||
w: ||
V:2
 [G,,G,] | [G,,G,][G,,G,] [B,,G,][D,F,] | G, G,2 [G,C] | [G,B,][G,B,] [G,D][G,D] | [D,D]3 [D,F,] | %5
 [G,,G,][G,,G,] [B,,G,][D,F,] | G, G,2 [G,B,] | [D,B,]>[D,D] [D,C][D,D] | [G,,B,]2 || G,G, | %10
 [G,,G,]3{G,,G,,} [G,,G,] | [C,G,][C,C] [G,,B,]2 [D,D]3{D,D,} [D,D] | [G,D][G,B,] [G,B,][G,B,] | %13
 [G,B,]3{G,G,} [G,D] | [G,B,][G,B,] [G,D][G,B,] | [D,D]>[D,B,] [D,C][D,C] | [G,,B,]3 |] %17
V:3
 x | x4 | G, G,2 x | x4 | x4 | x4 | G, G,2 x | x4 | x2 || G,G, | x4 | x8 | x4 | x4 | x4 | x4 | %16
 x3 |] %17

